images/section-social-icons/pinterest_icon.svg

<svg width="70" height="70" viewBox="0 0 70 70" fill="none" xmlns="http://www.w3.org/2000/svg">
<path d="M26.3667 62.825C29.1667 63.6709 31.9958 64.1667 35 64.1667C42.7355 64.1667 50.1542 61.0938 55.624 55.624C61.0938 50.1542 64.1667 42.7355 64.1667 35C64.1667 31.1698 63.4123 27.3771 61.9465 23.8384C60.4807 20.2998 58.3323 17.0845 55.624 14.3761C52.9156 11.6677 49.7003 9.51932 46.1616 8.05355C42.623 6.58779 38.8302 5.83337 35 5.83337C31.1698 5.83337 27.3771 6.58779 23.8384 8.05355C20.2997 9.51932 17.0844 11.6677 14.3761 14.3761C8.90625 19.8459 5.83334 27.2646 5.83334 35C5.83334 47.3959 13.6208 58.0417 24.6167 62.2417C24.3542 59.9667 24.0917 56.2042 24.6167 53.6084L27.9708 39.2C27.9708 39.2 27.125 37.5084 27.125 34.825C27.125 30.8 29.6333 27.7959 32.4917 27.7959C35 27.7959 36.1667 29.6334 36.1667 31.9959C36.1667 34.5042 34.5042 38.0917 33.6583 41.5334C33.1625 44.3917 35.175 46.9 38.0917 46.9C43.2833 46.9 47.3083 41.3584 47.3083 33.5417C47.3083 26.5417 42.2917 21.7584 35.0875 21.7584C26.8625 21.7584 22.0208 27.8834 22.0208 34.3292C22.0208 36.8375 22.8375 39.375 24.1792 41.0375C24.4417 41.2125 24.4417 41.4459 24.3542 41.8834L23.5083 45.0625C23.5083 45.5584 23.1875 45.7334 22.6917 45.3834C18.9583 43.75 16.8 38.4417 16.8 34.1542C16.8 24.9375 23.3333 16.5667 35.9333 16.5667C45.9667 16.5667 53.7834 23.7709 53.7834 33.3375C53.7834 43.3709 47.5708 51.4209 38.675 51.4209C35.8458 51.4209 33.075 49.9042 32.0833 48.125L30.1292 55.0375C29.4583 57.5459 27.6208 60.9 26.3667 62.9125V62.825V62.825Z" fill="#CCCCCC"/>
</svg>

<svg width="70" height="70" fill="none" xmlns="http://www.w3.org/2000/svg"><path d="M26.367 62.825c2.8.846 5.629 1.342 8.633 1.342A29.167 29.167 0 1 0 5.833 35c0 12.396 7.788 23.042 18.784 27.242-.263-2.275-.525-6.038 0-8.634L27.97 39.2s-.846-1.692-.846-4.375c0-4.025 2.508-7.03 5.367-7.03 2.508 0 3.675 1.838 3.675 4.2 0 2.51-1.663 6.097-2.509 9.538-.495 2.859 1.517 5.367 4.434 5.367 5.191 0 9.216-5.542 9.216-13.358 0-7-5.016-11.784-12.22-11.784-8.226 0-13.067 6.125-13.067 12.571 0 2.508.816 5.046 2.158 6.709.263.175.263.408.175.845l-.846 3.18c0 .495-.32.67-.816.32-3.734-1.633-5.892-6.941-5.892-11.229 0-9.217 6.533-17.587 19.133-17.587 10.034 0 17.85 7.204 17.85 16.77 0 10.034-6.212 18.084-15.108 18.084-2.83 0-5.6-1.517-6.592-3.296l-1.954 6.913c-.67 2.508-2.508 5.862-3.762 7.875v-.088z" fill="#CCC"/></svg>
